img/svg/logo.svg

<svg width="126" height="54" viewBox="0 0 126 54" fill="none" xmlns="http://www.w3.org/2000/svg">
<path d="M10.3773 15.585C12.7401 15.585 14.8049 16.0533 16.5717 16.99C18.3385 17.9266 19.7009 19.2464 20.6588 20.9493C21.638 22.631 22.1276 24.5787 22.1276 26.7925C22.1276 28.9851 21.638 30.9328 20.6588 32.6357C19.7009 34.3387 18.3279 35.6585 16.5398 36.5951C14.773 37.5317 12.7188 38 10.3773 38H1.97967V15.585H10.3773ZM10.0261 33.2743C12.0909 33.2743 13.698 32.7102 14.8475 31.582C15.997 30.4538 16.5717 28.8573 16.5717 26.7925C16.5717 24.7277 15.997 23.1206 14.8475 21.9711C13.698 20.8216 12.0909 20.2468 10.0261 20.2468H7.43972V33.2743H10.0261ZM24.0933 29.0596C24.0933 27.2289 24.4339 25.6217 25.1151 24.2381C25.8175 22.8545 26.7648 21.7901 27.9568 21.0451C29.1489 20.3001 30.4793 19.9275 31.9481 19.9275C33.204 19.9275 34.3003 20.183 35.2369 20.6939C36.1948 21.2047 36.9292 21.8753 37.4401 22.7055V20.183H42.9001V38H37.4401V35.4775C36.9079 36.3077 36.1629 36.9782 35.205 37.4891C34.2684 38 33.1721 38.2554 31.9162 38.2554C30.4687 38.2554 29.1489 37.8829 27.9568 37.1379C26.7648 36.3716 25.8175 35.2966 25.1151 33.9129C24.4339 32.508 24.0933 30.8902 24.0933 29.0596ZM37.4401 29.0915C37.4401 27.7291 37.0569 26.6542 36.2906 25.8665C35.5456 25.0789 34.6302 24.6851 33.5446 24.6851C32.459 24.6851 31.533 25.0789 30.7667 25.8665C30.0217 26.6329 29.6491 27.6972 29.6491 29.0596C29.6491 30.4219 30.0217 31.5075 30.7667 32.3164C31.533 33.104 32.459 33.4978 33.5446 33.4978C34.6302 33.4978 35.5456 33.104 36.2906 32.3164C37.0569 31.5288 37.4401 30.4538 37.4401 29.0915ZM57.7065 19.9914C59.7926 19.9914 61.453 20.6726 62.6876 22.0349C63.9435 23.376 64.5715 25.2279 64.5715 27.5908V38H59.1434V28.3252C59.1434 27.1331 58.8347 26.2071 58.2174 25.5472C57.6001 24.8874 56.7699 24.5574 55.7268 24.5574C54.6838 24.5574 53.8536 24.8874 53.2363 25.5472C52.619 26.2071 52.3103 27.1331 52.3103 28.3252V38H46.8503V20.183H52.3103V22.5458C52.8638 21.7582 53.6088 21.1409 54.5454 20.6939C55.482 20.2256 56.5357 19.9914 57.7065 19.9914ZM67.2801 29.0596C67.2801 27.2289 67.6206 25.6217 68.3018 24.2381C69.0043 22.8545 69.9515 21.7901 71.1436 21.0451C72.3357 20.3001 73.6661 19.9275 75.1349 19.9275C76.3908 19.9275 77.4871 20.183 78.4237 20.6939C79.3816 21.2047 80.116 21.8753 80.6269 22.7055V20.183H86.0869V38H80.6269V35.4775C80.0947 36.3077 79.3496 36.9782 78.3917 37.4891C77.4551 38 76.3589 38.2554 75.1029 38.2554C73.6554 38.2554 72.3357 37.8829 71.1436 37.1379C69.9515 36.3716 69.0043 35.2966 68.3018 33.9129C67.6206 32.508 67.2801 30.8902 67.2801 29.0596ZM80.6269 29.0915C80.6269 27.7291 80.2437 26.6542 79.4774 25.8665C78.7323 25.0789 77.817 24.6851 76.7314 24.6851C75.6458 24.6851 74.7198 25.0789 73.9535 25.8665C73.2084 26.6329 72.8359 27.6972 72.8359 29.0596C72.8359 30.4219 73.2084 31.5075 73.9535 32.3164C74.7198 33.104 75.6458 33.4978 76.7314 33.4978C77.817 33.4978 78.7323 33.104 79.4774 32.3164C80.2437 31.5288 80.6269 30.4538 80.6269 29.0915ZM100.893 19.9914C102.979 19.9914 104.64 20.6726 105.874 22.0349C107.13 23.376 107.758 25.2279 107.758 27.5908V38H102.33V28.3252C102.33 27.1331 102.021 26.2071 101.404 25.5472C100.787 24.8874 99.9567 24.5574 98.9136 24.5574C97.8705 24.5574 97.0404 24.8874 96.423 25.5472C95.8057 26.2071 95.4971 27.1331 95.4971 28.3252V38H90.037V20.183H95.4971V22.5458C96.0505 21.7582 96.7956 21.1409 97.7322 20.6939C98.6688 20.2256 99.7225 19.9914 100.893 19.9914ZM116.661 33.4978H124.388V38H110.563V33.6575L117.97 24.6851H110.626V20.183H124.229V24.5255L116.661 33.4978Z" fill="black"/>
<path d="M55.6152 29V41.5H98.9999V29" stroke="black" stroke-width="2" stroke-linecap="round"/>
</svg>

<svg width="126" height="54" viewBox="0 0 126 54" fill="none" xmlns="http://www.w3.org/2000/svg"><path d="M10.377 15.585c2.363 0 4.428.468 6.195 1.405 1.767.937 3.129 2.256 4.087 3.96.979 1.681 1.469 3.629 1.469 5.843 0 2.192-.49 4.14-1.47 5.843-.957 1.703-2.33 3.022-4.118 3.96-1.767.936-3.821 1.404-6.163 1.404H1.98V15.585h8.397zm-.35 17.69c2.064 0 3.671-.565 4.82-1.693 1.15-1.128 1.725-2.725 1.725-4.79 0-2.064-.575-3.671-1.724-4.82-1.15-1.15-2.757-1.725-4.822-1.725H7.44v13.027h2.586zm14.066-4.215c0-1.831.34-3.438 1.022-4.822.703-1.383 1.65-2.448 2.842-3.193 1.192-.745 2.522-1.118 3.991-1.118 1.256 0 2.352.256 3.289.767.958.51 1.692 1.181 2.203 2.012v-2.523h5.46V38h-5.46v-2.523c-.532.83-1.277 1.501-2.235 2.012-.937.511-2.033.766-3.289.766-1.447 0-2.767-.372-3.96-1.117-1.191-.766-2.139-1.841-2.84-3.225-.682-1.405-1.023-3.023-1.023-4.853zm13.347.032c0-1.363-.383-2.438-1.15-3.226-.744-.787-1.66-1.18-2.745-1.18-1.086 0-2.012.393-2.778 1.18-.745.767-1.118 1.831-1.118 3.194 0 1.362.373 2.448 1.118 3.256.766.788 1.692 1.182 2.778 1.182 1.085 0 2-.394 2.746-1.182.766-.787 1.15-1.862 1.15-3.225zm20.267-9.1c2.086 0 3.746.68 4.98 2.043 1.257 1.341 1.885 3.193 1.885 5.556V38h-5.429v-9.675c0-1.192-.308-2.118-.926-2.778-.617-.66-1.447-.99-2.49-.99-1.043 0-1.873.33-2.49.99-.618.66-.927 1.586-.927 2.778V38h-5.46V20.183h5.46v2.363c.554-.788 1.299-1.405 2.235-1.852.937-.468 1.99-.703 3.161-.703zm9.573 9.068c0-1.831.34-3.438 1.022-4.822.702-1.383 1.65-2.448 2.842-3.193 1.192-.745 2.522-1.118 3.99-1.118 1.257 0 2.353.256 3.29.767.958.51 1.692 1.181 2.203 2.012v-2.523h5.46V38h-5.46v-2.523c-.532.83-1.277 1.501-2.235 2.012-.937.511-2.033.766-3.29.766-1.447 0-2.766-.372-3.958-1.117-1.193-.766-2.14-1.841-2.842-3.225-.681-1.405-1.022-3.023-1.022-4.853zm13.347.032c0-1.363-.383-2.438-1.15-3.226-.745-.787-1.66-1.18-2.746-1.18-1.085 0-2.011.393-2.777 1.18-.746.767-1.118 1.831-1.118 3.194 0 1.362.372 2.448 1.118 3.256.766.788 1.692 1.182 2.777 1.182 1.086 0 2.001-.394 2.746-1.182.767-.787 1.15-1.862 1.15-3.225zm20.266-9.1c2.086 0 3.747.68 4.981 2.043 1.256 1.341 1.884 3.193 1.884 5.556V38h-5.428v-9.675c0-1.192-.309-2.118-.926-2.778-.617-.66-1.447-.99-2.49-.99-1.043 0-1.874.33-2.491.99-.617.66-.926 1.586-.926 2.778V38h-5.46V20.183h5.46v2.363c.553-.788 1.299-1.405 2.235-1.852.937-.468 1.99-.703 3.161-.703zm15.768 13.506h7.727V38h-13.825v-4.343l7.407-8.972h-7.344v-4.502h13.603v4.343l-7.568 8.972z" fill="#000"/><path d="M55.615 29v12.5H99V29" stroke="#000" stroke-width="2" stroke-linecap="round"/></svg>
